X:3
T:Reinlander from Kongsberg
R:reinländer
M:4/4
L:1/8
K:D
|: "D"f2 fe "D/A"d4 | "G"e2 ed "G/B"B4
|  "A"c2 cB "A"AG FE | "D"DE FG "D/A"A4
|  "D"f2 fe "D/F#"d4 | "Em/G"e2 ed "Em"B4
|  "A"c2 cB "A/B"AG "A/C#"FE | "D"D2 "D/A"d2 "D"d4  :|
|: "G"G2 GB "G/B"d2 cB | "D"B2 AF "D"A3 B
|  "A"A2 G2 "A/E"EF GB | "D"B2 AF "D/E"(D2 "D/F#"D)F
|  "G"G2 GB "G/B"d2 cB | "D"B2 AF "D/A"A3 B
|  "A/E"A2 G2 "A"F2 E2 | "D"D2 "D/A"d2 "D"d4  :|
